packages/kaspersky-hexa-ui-icons/src/iconsSVGs/16/OperaColor.svg

<svg width="16" height="16" viewBox="0 0 16 16" fill="none" xmlns="http://www.w3.org/2000/svg">
<path d="M7.99981 0.000332832C3.8578 0.000332832 0.5 3.35813 0.5 7.50015C0.5 11.5223 3.66651 14.805 7.64263 14.9912C7.76129 14.9968 7.88013 15 7.99992 15C9.92009 15 11.6712 14.278 12.9981 13.0914C12.119 13.6744 11.0912 14.0099 9.99274 14.0099C8.20672 14.0099 6.60717 13.1239 5.53138 11.7266C4.70208 10.7477 4.16495 9.30066 4.12836 7.67669V7.3235C4.16493 5.69958 4.70205 4.25224 5.53117 3.27356C6.60711 1.87633 8.20661 0.990302 9.99253 0.990302C11.0912 0.990302 12.1192 1.32576 12.9984 1.90917C11.6781 0.727996 9.9375 0.0074625 8.02802 0.000371933C8.0185 0.000371933 8.00918 0 7.99966 0L7.99981 0.000332832Z" fill="url(#paint0_linear_38333_2144)"/>
<path d="M5.53125 3.27406C6.2195 2.46156 7.10834 1.97161 8.07943 1.97161C10.2629 1.97161 12.0325 4.44703 12.0325 7.50056C12.0325 10.5541 10.2627 13.0295 8.07943 13.0295C7.10834 13.0295 6.2195 12.5398 5.53144 11.7272C6.6072 13.1245 8.20661 14.0105 9.9928 14.0105C11.0913 14.0105 12.1191 13.675 12.9982 13.092C14.5333 11.7187 15.4999 9.72257 15.4999 7.50061C15.4999 5.27893 14.5335 3.28293 12.9987 1.90975C12.1194 1.32635 11.0914 0.990887 9.99283 0.990887C8.2068 0.990887 6.60704 1.87684 5.53125 3.27406Z" fill="url(#paint1_linear_38333_2144)"/>
<defs>
<linearGradient id="paint0_linear_38333_2144" x1="6.7494" y1="0.244807" x2="6.7494" y2="14.7819" gradientUnits="userSpaceOnUse">
<stop stop-color="#FF1B2D"/>
<stop offset="0.3" stop-color="#FF1B2D"/>
<stop offset="0.614" stop-color="#FF1B2D"/>
<stop offset="1" stop-color="#A70014"/>
</linearGradient>
<linearGradient id="paint1_linear_38333_2144" x1="10.5154" y1="1.10185" x2="10.5154" y2="13.9592" gradientUnits="userSpaceOnUse">
<stop stop-color="#9C0000"/>
<stop offset="0.7" stop-color="#FF4B4B"/>
<stop offset="1" stop-color="#FF4B4B"/>
</linearGradient>
</defs>
</svg>

<svg xmlns="http://www.w3.org/2000/svg" width="16" height="16" fill="none" viewBox="0 0 16 16"><path fill="url(#a)" d="M7.9998.0003C3.8578.0003.5 3.3581.5 7.5002c0 4.0221 3.1665 7.3048 7.1426 7.491A7.6 7.6 0 0 0 8 15c1.9202 0 3.6713-.722 4.9982-1.9086-.8791.583-1.9069.9185-3.0054.9185-1.786 0-3.3855-.886-4.4613-2.2833-.8293-.9789-1.3664-2.426-1.403-4.05v-.3531c.0365-1.624.5736-3.0713 1.4028-4.05C6.6072 1.8764 8.2066.9904 9.9925.9904c1.0987 0 2.1267.3355 3.0059.9189C11.6781.728 9.9375.0075 8.028.0004 8.0185.0004 8.0092 0 7.9997 0z"/><path fill="url(#b)" d="M5.5313 3.274c.6882-.8124 1.577-1.3024 2.5481-1.3024 2.1835 0 3.9531 2.4754 3.9531 5.529s-1.7698 5.5289-3.953 5.5289c-.9712 0-1.86-.4897-2.548-1.3023 1.0757 1.3973 2.6751 2.2833 4.4613 2.2833 1.0985 0 2.1263-.3355 3.0054-.9185 1.5351-1.3733 2.5017-3.3694 2.5017-5.5914 0-2.2217-.9664-4.2177-2.5012-5.5909-.8793-.5833-1.9073-.9188-3.0059-.9188-1.786 0-3.3858.886-4.4616 2.2832"/><defs><linearGradient id="a" x1="7" x2="7" y1="0" y2="15" gradientUnits="userSpaceOnUse"><stop stop-color="#ff1b2d"/><stop offset="0" stop-color="#ff1b2d"/><stop offset="1" stop-color="#ff1b2d"/><stop offset="1" stop-color="#a70014"/></linearGradient><linearGradient id="b" x1="11" x2="11" y1="1" y2="14" gradientUnits="userSpaceOnUse"><stop stop-color="#9c0000"/><stop offset="1" stop-color="#ff4b4b"/><stop offset="1" stop-color="#ff4b4b"/></linearGradient></defs></svg>
